X:1
T:Title
%%score { ( 1 3 ) | ( 2 4 ) }
L:1/8
Q:1/4=100
M:6/8
K:Ab
V:1 treble nm="Grand Piano"
V:3 treble 
V:2 bass 
V:4 bass 
V:1
 [CE]3 [DF]2 [CE] | [EA]2 B c3 | B3 B2 c | A2 F [CE]3 | [CE]3 [DF]2 [CE] | [EA]2 B c3 | BBB BcB | %7
w: C.~B.~Strouse * *|||||||
 [CA]6 | [Ec]3 [CE]3 | [CE][CA][Ec] B3 | B3 E3 | EGB [CA]3 | [Ec]3 [CA]3 | ABc [Fd]3 | %14
w: |||||||
[M:7/8] cBA E c3 |[M:3/4] Ec- c4 | EB- B4 | EB- B4 |[M:15/16] z B-<B- B3- B z/ |[M:3/4] [CA]6 |] %20
w: ||||||
V:2
 [A,,A,]3 [A,,A,]2 [A,,A,] | [C,A,]2 [E,G,E] [A,E]3 | [E,G,D]3 [E,G,D]2 [E,G,E] | %3
 [F,A,C]2 [D,A,D] [A,,A,]3 | [A,,A,]3 [A,,A,]2 [A,,A,] | [C,A,]2 [E,G,E] [A,E]3 | %6
 [E,G,D][E,G,D][E,G,D] [E,G,D][E,G,E][E,G,D] | [A,,A,]6 | [A,,A,]3 [A,,A,]3 | %9
 [A,,A,][A,,A,][A,,A,] [E,G,E]3 | [E,G,D]3 [E,G,D]3 | [E,G,D][E,B,D][E,G,D] [A,,A,]3 | %12
 [A,,A,]3 [A,,A,]3 | [A,C][A,D][A,E] [D,A,]3 |[M:7/8] [E,A,E][E,G,D][E,A,C] [E,A,C] [E,A,E]3 | %15
[M:3/4] [E,A,C][E,A,E]- [E,A,E]4 | [E,G,D][E,G,D]- [E,G,D]4 | [E,G,D][E,G,D]- [E,G,D]4 | %18
[M:15/16] D3 z3/2 z3 |[M:3/4] [A,,A,]6 |] %20
V:3
 x6 | x6 | x6 | x6 | x6 | x6 | x6 | x6 | x6 | x6 | x6 | x6 | x6 | x6 |[M:7/8] x7 |[M:3/4] x6 | x6 | %17
 x6 |[M:15/16] .E3/2 z3/2 D3/2- D3 |[M:3/4] x6 |] %20
V:4
 x6 | x6 | x6 | x6 | x6 | x6 | x6 | x6 | x6 | x6 | x6 | x6 | x6 | x6 |[M:7/8] x7 |[M:3/4] x6 | x6 | %17
 x6 |[M:15/16] [E,G,]3/2-[E,G,]3/2-[E,G,]3/2- [E,G,]3 |[M:3/4] x6 |] %20

